Origami/64x64/apps/visual-studio-code.svg

<svg width="64" height="64" version="1" xmlns="http://www.w3.org/2000/svg">
 <path d="m41.84375 4.9987075a8.0008 8.0008 0 0 0 -5.5 2.34375l-10.882812 10.878906-4.550782-3.539063a8.0008 8.0008 0 0 0 -8.488281 -0.839844l-4 2a8.0008 8.0008 0 0 0 -4.421875 7.15625v20a8.0008 8.0008 0 0 0 4.421875 7.15625l4 2a8.0008 8.0008 0 0 0 8.488281 -0.839844l4.550782-3.539062 10.882812 10.878906a8.0008 8.0008 0 0 0 8.628906 1.773438l10-4a8.0008 8.0008 0 0 0 5.027344 -7.429688v-32a8.0008 8.0008 0 0 0 -5.027344 -7.4296871l-10-4a8.0008 8.0008 0 0 0 -3.128906 -0.5703124z" style="fill-rule:evenodd;fill:#080812;opacity:.2"/>
 <path d="m41.84375 4a8.0008 8.0008 0 0 0 -5.5 2.34375l-10.882812 10.878906-4.550782-3.539062a8.0008 8.0008 0 0 0 -8.488281 -0.839844l-4 2a8.0008 8.0008 0 0 0 -4.421875 7.15625v20a8.0008 8.0008 0 0 0 4.421875 7.15625l4 2a8.0008 8.0008 0 0 0 8.488281 -0.839844l4.550782-3.539062 10.882812 10.878906a8.0008 8.0008 0 0 0 8.628906 1.773438l10-4a8.0008 8.0008 0 0 0 5.027344 -7.429688v-32a8.0008 8.0008 0 0 0 -5.027344 -7.4296876l-10-4a8.0008 8.0008 0 0 0 -3.128906 -0.5703124z" style="fill-rule:evenodd;fill:#373277"/>
 <path d="m42 13-15.876 15.876-10.124-7.876-4 2v20l4 2 10.124-7.876 15.876 15.876 10-4v-32zm0 11.7774v16.4454l-10.57-8.224 10.57-8.222zm-26 2.222 6 6-6 6z" style="fill-rule:evenodd;opacity:.2"/>
 <path d="M 42,12 26.125,27.875 16,20 12,22 V 42 L 16,44 26.125,36.125 42,52 52,48 V 16 Z m 0,11.777344 V 40.222656 L 31.429688,32 Z M 16,26 l 6,6 -6,6 z" style="fill-rule:evenodd;fill:#ffffff"/>
 <path d="m41.84375 4a8.0008 8.0008 0 0 0 -5.5 2.34375l-10.882812 10.878906-4.550782-3.539062a8.0008 8.0008 0 0 0 -8.488281 -0.839844l-4 2a8.0008 8.0008 0 0 0 -4.421875 7.15625v0.941406a8.0008 8.0008 0 0 1 4.421875 -7.099609l4-2a8.0008 8.0008 0 0 1 8.488281 0.839844l4.550782 3.539062 10.882812-10.878906a8.0008 8.0008 0 0 1 5.5 -2.34375 8.0008 8.0008 0 0 1 3.128906 0.5703125l10 4a8.0008 8.0008 0 0 1 5.027344 7.4296876v-0.998047a8.0008 8.0008 0 0 0 -5.027344 -7.4296875l-10-4a8.0008 8.0008 0 0 0 -3.128906 -0.5703125z" style="fill-rule:evenodd;fill:#ffffff;opacity:.1"/>
</svg>

<svg xmlns="http://www.w3.org/2000/svg" width="64" height="64" version="1">
 <path style="fill-rule:evenodd;fill:#080812;opacity:0.2" d="m 41.84375,4.9987075 a 8.0008,8.0008 0 0 0 -5.5,2.34375 L 25.460938,18.221364 20.910156,14.682301 a 8.0008,8.0008 0 0 0 -8.488281,-0.839844 l -4,2 A 8.0008,8.0008 0 0 0 4,22.998707 v 20 a 8.0008,8.0008 0 0 0 4.421875,7.15625 l 4,2 a 8.0008,8.0008 0 0 0 8.488281,-0.839844 l 4.550782,-3.539062 10.882812,10.878906 a 8.0008,8.0008 0 0 0 8.628906,1.773438 l 10,-4 A 8.0008,8.0008 0 0 0 60,48.998707 v -32 A 8.0008,8.0008 0 0 0 54.972656,9.5690199 l -10,-4 A 8.0008,8.0008 0 0 0 41.84375,4.9987075 Z"/>
 <path style="fill:#373277;fill-rule:evenodd" d="m 41.84375,4 a 8.0008,8.0008 0 0 0 -5.5,2.34375 L 25.460938,17.222656 20.910156,13.683594 A 8.0008,8.0008 0 0 0 12.421875,12.84375 l -4,2 A 8.0008,8.0008 0 0 0 4,22 v 20 a 8.0008,8.0008 0 0 0 4.421875,7.15625 l 4,2 a 8.0008,8.0008 0 0 0 8.488281,-0.839844 L 25.460938,46.777344 36.34375,57.65625 a 8.0008,8.0008 0 0 0 8.628906,1.773438 l 10,-4 A 8.0008,8.0008 0 0 0 60,48 V 16 A 8.0008,8.0008 0 0 0 54.972656,8.5703124 l -10,-4 A 8.0008,8.0008 0 0 0 41.84375,4 Z"/>
 <path style="opacity:0.2;fill-rule:evenodd" d="M 42,13 26.124,28.876 16,21 12,23 V 43 L 16,45 26.124,37.124 42,53 52,49 V 17 Z m 0,11.7774 V 41.2228 L 31.43,32.9988 42,24.7768 Z m -26,2.222 6,6 -6,6 z"/>
 <path style="fill:#ffffff;fill-rule:evenodd" d="M 42,12 26.125,27.875 16,20 12,22 V 42 L 16,44 26.125,36.125 42,52 52,48 V 16 Z m 0,11.777344 V 40.222656 L 31.429688,32 Z M 16,26 l 6,6 -6,6 z"/>
 <path style="fill:#ffffff;fill-rule:evenodd;opacity:0.1" d="m 41.84375,4 a 8.0008,8.0008 0 0 0 -5.5,2.34375 L 25.460938,17.222656 20.910156,13.683594 A 8.0008,8.0008 0 0 0 12.421875,12.84375 l -4,2 A 8.0008,8.0008 0 0 0 4,22 v 0.941406 a 8.0008,8.0008 0 0 1 4.421875,-7.099609 l 4,-2 a 8.0008,8.0008 0 0 1 8.488281,0.839844 L 25.460938,18.220703 36.34375,7.3417969 a 8.0008,8.0008 0 0 1 5.5,-2.34375 8.0008,8.0008 0 0 1 3.128906,0.5703125 l 10,4 A 8.0008,8.0008 0 0 1 60,16.998047 V 16 A 8.0008,8.0008 0 0 0 54.972656,8.5703125 l -10,-4 A 8.0008,8.0008 0 0 0 41.84375,4 Z"/>
</svg>
